X: 1
T: Old Faithful
C:Jerry Holland
S:Paul de Grae <sullgrae@IOL.IE> irtrad-l 2001-9-19
R:march
M:4/4
L:1/8
N: chords:
N: - - | D - A - | D - - - | G - D - | E7 - A - |
N: D - F#7 - | Bm - D7 - | G - D A | D G D - |
N: - - - - | Em - A - | D - - - | E - A - |
N: D - - - | F#7 - Bm D7 | G - D A | D G D - |
N: - - - - | Em - A - | D - B7 - | E - A - |
N: D - Em - | D - G - | D A D G | D G D - ||
K:D
ag|f2 ed c2 Bc|d2 AG FADF| GFGB AdDE|FEED E2 ag|
f2 ef gedc|dABG F2 EF|GFGB AFGE|F2 D2 D2:|fg
abag f2 ef|gage c2 BA|dcde fagf|e2 E2 E2 fg|
abag f2 ef|gedc d2 (3AB=c|BAGB AFGE|F2 D2 D2 fg|
abag f2 af|gage c2 BA|dcde fagf|e2 E2 EGFE|
DFAd EGBe|FAdf gbag|fdec dABG|F2 D2 D2||

%%sep 1 1 500

